src/svg/birthday-cake.svg

<svg height="1000" width="875.0" xmlns="http://www.w3.org/2000/svg">
    <path d="m875 750c-54.7 0-61.1-62.5-145.5-62.5-84.8 0-91.5 62.5-146 62.5-54.1 0-61.4-62.5-146-62.5-83.7 0-92.2 62.5-145.5 62.5-55 0-60.9-62.5-146-62.5-85.1 0-91.1 62.5-146 62.5v-156.2c0-51.8 42-93.8 93.8-93.8h31.2v-281.2h125v281.2h125v-281.2h125v281.2h125v-281.2h125v281.2h31.3c51.7 0 93.7 42 93.7 93.8v156.2z m0 250h-875v-187.5c84.7 0 91.3-62.5 146-62.5 54.6 0 61 62.5 146 62.5 83.7 0 92.2-62.5 145.5-62.5 55 0 60.9 62.5 146 62.5 84.7 0 91.3-62.5 146-62.5 53.7 0 61 62.5 145.5 62.5v187.5z m-687.5-812.5c-34.7 0-62.5-27.8-62.5-62.5 0-60.5 62.5-44.9 62.5-125 23.4 0 62.5 57.6 62.5 109.4s-27.8 78.1-62.5 78.1z m250 0c-34.7 0-62.5-27.8-62.5-62.5 0-60.5 62.5-44.9 62.5-125 23.4 0 62.5 57.6 62.5 109.4s-27.8 78.1-62.5 78.1z m250 0c-34.7 0-62.5-27.8-62.5-62.5 0-60.5 62.5-44.9 62.5-125 23.4 0 62.5 57.6 62.5 109.4s-27.8 78.1-62.5 78.1z" />
  </svg>

<svg height="1000" width="875" xmlns="http://www.w3.org/2000/svg"><path d="M875 750c-54.7 0 -61.1 -62.5 -145.5 -62.5 -84.8 0 -91.5 62.5 -146 62.5 -54.1 0 -61.4 -62.5 -146 -62.5C353.8 687.5 345.3 750 292 750c-55 0 -60.9 -62.5 -146 -62.5S54.9 750 0 750V593.8C0 542 42 500 93.8 500H125V218.8h125V500h125V218.8h125V500h125V218.8h125V500h31.3c51.7 0 93.7 42 93.7 93.8V750zm0 250H0V812.5c84.7 0 91.3 -62.5 146 -62.5 54.6 0 61 62.5 146 62.5 83.7 0 92.2 -62.5 145.5 -62.5 55 0 60.9 62.5 146 62.5 84.7 0 91.3 -62.5 146 -62.5 53.7 0 61 62.5 145.5 62.5V1000zM187.5 187.5C152.8 187.5 125 159.7 125 125 125 64.5 187.5 80.1 187.5 0 210.9 0 250 57.6 250 109.4s-27.8 78.1 -62.5 78.1zm250 0C402.8 187.5 375 159.7 375 125 375 64.5 437.5 80.1 437.5 0 460.9 0 500 57.6 500 109.4s-27.8 78.1 -62.5 78.1zm250 0C652.8 187.5 625 159.7 625 125 625 64.5 687.5 80.1 687.5 0 710.9 0 750 57.6 750 109.4s-27.8 78.1 -62.5 78.1z"/></svg>
